packages/dnb-eufemia/assets/icons/contacts.svg

<svg width="16" height="16" viewBox="0 0 16 16" fill="none" xmlns="http://www.w3.org/2000/svg">
<path d="M10.3378 11.8568C10.3591 12.2705 10.7117 12.5885 11.1254 12.5672C11.539 12.5459 11.8571 12.1932 11.8358 11.7796L10.3378 11.8568ZM7.16424 11.7796C7.14291 12.1932 7.46095 12.5459 7.87462 12.5672C8.28828 12.5885 8.64092 12.2705 8.66225 11.8568L7.16424 11.7796ZM9.5 10.7775C9.78071 10.7775 9.95027 10.8776 10.07 11.0232C10.2066 11.1893 10.3177 11.4683 10.3378 11.8568L11.8358 11.7796C11.8041 11.1654 11.6222 10.549 11.2285 10.0704C10.818 9.57133 10.2201 9.27748 9.5 9.27748V10.7775ZM8.66225 11.8568C8.68228 11.4683 8.79338 11.1893 8.92995 11.0232C9.04973 10.8776 9.21929 10.7775 9.5 10.7775V9.27748C8.77992 9.27748 8.18196 9.57133 7.77148 10.0704C7.37781 10.549 7.19591 11.1654 7.16424 11.7796L8.66225 11.8568ZM10.6591 6.77167C10.6591 7.45269 10.124 7.97516 9.5 7.97516V9.47516C10.9847 9.47516 12.1591 8.24842 12.1591 6.77167H10.6591ZM9.5 7.97516C8.87601 7.97516 8.34091 7.45269 8.34091 6.77167H6.84091C6.84091 8.24842 8.01526 9.47516 9.5 9.47516V7.97516ZM8.34091 6.77167C8.34091 6.09065 8.87601 5.56818 9.5 5.56818V4.06818C8.01526 4.06818 6.84091 5.29492 6.84091 6.77167H8.34091ZM9.5 5.56818C10.124 5.56818 10.6591 6.09065 10.6591 6.77167H12.1591C12.1591 5.29492 10.9847 4.06818 9.5 4.06818V5.56818ZM14.75 14.3636V1.63636H13.25V14.3636H14.75ZM1.25 1.63636V14.3636H2.75V1.63636H1.25ZM13.3636 0.25H5V1.75H13.3636V0.25ZM5 0.25H2.63636V1.75H5V0.25ZM2.63636 15.75H5V14.25H2.63636V15.75ZM5 15.75H13.3636V14.25H5V15.75ZM4.25 1V15H5.75V1H4.25ZM2.75 1.63636C2.75 1.69912 2.69912 1.75 2.63636 1.75V0.25C1.8707 0.25 1.25 0.870696 1.25 1.63636H2.75ZM14.75 1.63636C14.75 0.870697 14.1293 0.25 13.3636 0.25V1.75C13.3009 1.75 13.25 1.69912 13.25 1.63636H14.75ZM13.25 14.3636C13.25 14.3009 13.3009 14.25 13.3636 14.25V15.75C14.1293 15.75 14.75 15.1293 14.75 14.3636H13.25ZM1.25 14.3636C1.25 15.1293 1.8707 15.75 2.63636 15.75V14.25C2.69912 14.25 2.75 14.3009 2.75 14.3636H1.25Z" fill="black"/>
</svg>

<svg width="16" height="16" viewBox="0 0 16 16" fill="none" xmlns="http://www.w3.org/2000/svg"><path d="M10.338 11.857a.75.75 0 1 0 1.498-.077l-1.498.077Zm-3.174-.077a.75.75 0 1 0 1.498.077l-1.498-.077ZM9.5 10.778c.28 0 .45.1.57.245.137.166.248.445.268.834l1.498-.077c-.032-.615-.214-1.231-.607-1.71-.411-.499-1.009-.793-1.729-.793v1.5Zm-.838 1.079c.02-.389.131-.668.268-.834.12-.145.29-.245.57-.245v-1.5c-.72 0-1.318.293-1.729.792-.393.479-.575 1.095-.607 1.71l1.498.077Zm1.997-5.085c0 .68-.535 1.203-1.159 1.203v1.5c1.485 0 2.66-1.227 2.66-2.703h-1.5ZM9.5 7.975c-.624 0-1.16-.522-1.16-1.203h-1.5c0 1.476 1.175 2.703 2.66 2.703v-1.5ZM8.34 6.772c0-.681.536-1.204 1.16-1.204v-1.5c-1.485 0-2.66 1.227-2.66 2.704h1.5ZM9.5 5.568c.624 0 1.16.523 1.16 1.204h1.5c0-1.477-1.175-2.704-2.66-2.704v1.5Zm5.25 8.796V1.636h-1.5v12.728h1.5ZM1.25 1.636v12.728h1.5V1.636h-1.5ZM13.364.25H5v1.5h8.364V.25ZM5 .25H2.636v1.5H5V.25Zm-2.364 15.5H5v-1.5H2.636v1.5Zm2.364 0h8.364v-1.5H5v1.5ZM4.25 1v14h1.5V1h-1.5Zm-1.5.636c0 .063-.05.114-.114.114V.25C1.871.25 1.25.87 1.25 1.636h1.5Zm12 0c0-.765-.62-1.386-1.386-1.386v1.5a.114.114 0 0 1-.114-.114h1.5Zm-1.5 12.728c0-.063.05-.114.114-.114v1.5c.765 0 1.386-.62 1.386-1.386h-1.5Zm-12 0c0 .765.62 1.386 1.386 1.386v-1.5c.063 0 .114.05.114.114h-1.5Z" fill="#000"/></svg>
